icons/passbolt-logo.svg

<?xml version="1.0" encoding="UTF-8"?>
<svg width="512px" height="90px" viewBox="0 0 512 90" version="1.1" xmlns="http://www.w3.org/2000/svg" xmlns:xlink="http://www.w3.org/1999/xlink" preserveAspectRatio="xMidYMid">
    <g>
        <path d="M476.269441,5.6648231 L476.387701,5.66683718 L476.716168,5.68244023 C478.353994,5.79492818 479.919344,6.42303831 481.193908,7.50071178 L481.444879,7.72222107 L481.682804,7.95123296 L509.859349,36.2573248 C512.68172,39.0921642 512.706836,43.5209253 509.972407,46.436972 L509.781693,46.6334128 L509.585824,46.8214414 L480.372955,73.8967831 C477.418474,76.6363908 472.865072,76.7195225 469.880751,74.1296171 L469.675128,73.9445888 L469.477815,73.7534727 L453.154833,57.365717 C452.93323,57.1432348 452.969557,56.7738548 453.230257,56.5988059 C456.675814,54.2852537 459.183036,50.8307631 460.269315,46.8663318 L460.373188,46.4682123 L460.471486,46.0495999 C460.51785,45.8521507 460.677778,45.7053381 460.872319,45.6717201 L460.957583,45.664425 L473.135046,45.664425 C473.380171,45.664425 473.584041,45.8410593 473.62632,46.0739907 L473.634364,46.1637439 L473.634364,50.8922268 C473.634364,52.3275066 474.708175,53.5147204 476.096525,53.6768572 L476.264588,53.6913435 L476.438506,53.6963686 L482.430077,53.6963686 C483.865357,53.6963686 485.052571,52.6225582 485.214707,51.2342084 L485.229194,51.0661452 L485.234219,50.8922268 L485.234219,46.1637439 C485.234219,45.9186184 485.410853,45.714748 485.643784,45.6724697 L485.733538,45.664425 L487.871071,45.664425 C489.332946,45.664425 490.52775,44.582838 490.68859,43.1698773 L490.702879,42.9987794 L490.7076,42.8278964 L490.7076,39.718757 C490.7076,38.250054 489.619319,37.0329352 488.212025,36.8692006 L488.041668,36.85466 L487.871071,36.8498415 L460.309845,36.8498415 C460.100651,36.8498415 459.913633,36.7194367 459.841313,36.5231403 C458.403661,32.6209538 455.553938,29.3553627 451.861021,27.3366459 L451.48894,27.1389531 L451.114756,26.9512058 C450.831515,26.8090898 450.756546,26.4495775 450.937384,26.2074077 L450.999357,26.1386118 L470.787553,7.8077604 C472.117942,6.57412435 473.800703,5.83848623 475.557475,5.70050007 L475.891917,5.67674337 L476.151644,5.6657996 L476.269441,5.6648231 Z M443.210961,33.954156 C447.99617,33.954156 451.879352,37.76042 451.879352,42.460736 C451.879352,47.1610508 447.99617,50.967316 443.210961,50.967316 C438.425753,50.967316 434.54257,47.1610508 434.54257,42.460736 C434.54257,37.76042 438.425752,33.954156 443.210961,33.954156 Z" fill="#D40000"></path>
        <path d="M26.543209,18.9042218 C34.5367593,18.9042218 40.7737031,21.2572087 45.2540117,25.9630671 C49.7342337,30.6690119 51.9744456,37.228244 51.9744456,45.640821 C51.9744456,49.089686 51.5070209,52.2645742 50.5723446,55.1654569 C49.6375529,58.0341223 48.2193289,60.661057 46.3176725,63.0462323 C44.0613664,65.9148977 41.3538739,67.9777558 38.1951664,69.2348069 C35.0363724,70.4596408 30.8461925,71.0720576 25.6245981,71.0720576 L13.7792503,71.0720576 L13.7792503,89.9762506 L0,89.9762506 L0,18.9042218 L26.543209,18.9042218 Z M325.674293,17.9855821 C334.054623,17.9855821 340.742811,20.4514015 345.738856,25.3828963 C350.767003,30.2822314 353.281191,36.8253404 353.281191,45.0123099 C353.281191,53.1993082 350.783126,59.7424461 345.787196,64.6417235 C340.823398,69.5087837 334.119087,71.9423282 325.674293,71.9423282 C317.229441,71.9423282 310.492913,69.4926606 305.46468,64.5933832 C300.436475,59.6940769 297.922344,53.1670621 297.922344,45.0123099 C297.922344,36.8253404 300.436475,30.2822314 305.46468,25.3828963 C310.492913,20.4514015 317.229441,17.9855821 325.674293,17.9855821 Z M89.7344623,18.9042218 C96.8577421,18.9042218 102.224415,20.5481111 105.834483,23.8357454 C109.444434,27.091249 111.249467,31.9421861 111.249467,38.3885856 L111.249467,71.0720576 L74.2146709,71.0720576 C69.0252648,71.0720576 65.0284752,69.7666374 62.2242732,67.1558257 C59.4523175,64.5450428 58.0663107,60.8383242 58.0663107,56.0357275 C58.0663107,50.1050065 59.6618019,45.8503632 62.8528132,43.2717688 C66.076013,40.6932032 71.4104401,39.4039349 78.8560947,39.403906 L96.9867266,39.403906 L96.9867266,38.0984858 C96.986669,35.0042417 96.0680581,32.8285508 94.230865,31.5714709 C92.4258316,30.3144486 89.18648,29.6859376 84.5128678,29.6858799 L61.4990526,29.6858799 L61.4990526,18.9042218 L89.7344623,18.9042218 Z M169.605907,18.9042218 L169.605907,29.7825894 L145.2867,29.7825894 C141.322098,29.7826183 138.743533,30.1371815 137.550975,30.8462503 C136.358357,31.5231595 135.762064,32.7479932 135.762064,34.5207228 C135.762064,36.1323659 136.277772,37.3249535 137.309215,38.0984858 C138.372876,38.8398583 140.032831,39.2105446 142.289107,39.2105157 L154.762966,39.2105157 C160.468023,39.2105446 164.819375,40.5481821 167.817025,43.2234284 C170.81456,45.8664863 172.313399,49.7021029 172.313399,54.7303072 C172.313399,59.56515 170.975732,63.4974763 168.300486,66.5273145 C165.657399,69.5571241 162.240809,71.0720576 158.050658,71.0720576 L122.466275,71.0720576 L122.466275,60.19369 L151.523643,60.19369 C154.10218,60.19369 155.971648,59.7907865 157.132048,58.9849793 C158.324578,58.1791721 158.920871,56.8898749 158.920929,55.1170877 C158.920871,53.3443581 158.324578,52.0550609 157.132048,51.2492249 C155.939402,50.4112294 154.069934,49.9922027 151.523643,49.9921739 L139.629956,49.9921739 C132.571081,49.9922027 127.800702,48.9124188 125.318846,46.752851 C122.836961,44.5933121 121.596033,40.7576666 121.596033,35.2459434 C121.596033,29.6375684 123.094815,25.511852 126.092407,22.8687653 C129.089999,20.2257939 133.731423,18.9042218 140.016736,18.9042218 L169.605907,18.9042218 Z M228.397467,18.9042218 L228.397467,29.7825894 L204.07826,29.7825894 C200.113688,29.7826183 197.535093,30.1371815 196.342535,30.8462503 C195.149917,31.5231595 194.553624,32.7479932 194.553653,34.5207228 C194.553624,36.1323659 195.069332,37.3249535 196.100804,38.0984858 C197.164436,38.8398583 198.824391,39.2105446 201.080667,39.2105157 L213.554526,39.2105157 C219.259583,39.2105446 223.610935,40.5481821 226.608585,43.2234284 C229.60612,45.8664863 231.104987,49.7021029 231.104987,54.7303072 C231.104987,59.56515 229.767292,63.4974763 227.092075,66.5273145 C224.448988,69.5571241 221.032369,71.0720576 216.842218,71.0720576 L181.257864,71.0720576 L181.257864,60.19369 L210.315204,60.19369 C212.893741,60.19369 214.763208,59.7907865 215.923608,58.9849793 C217.116167,58.1791721 217.71246,56.8898749 217.712489,55.1170877 C217.71246,53.3443581 217.116167,52.0550609 215.923608,51.2492249 C214.730963,50.4112294 212.861494,49.9922027 210.315204,49.9921739 L198.421516,49.9921739 C191.362642,49.9922027 186.592262,48.9124188 184.110406,46.752851 C181.628521,44.5933121 180.387593,40.7576666 180.387593,35.2459434 C180.387593,29.6375684 181.886375,25.511852 184.883967,22.8687653 C187.881559,20.2257939 192.523012,18.9042218 198.808296,18.9042218 L228.397467,18.9042218 Z M254.747286,0 L254.747286,18.9042218 L266.592633,18.9042218 C271.814199,18.9042506 276.004408,19.5327906 279.163201,20.789784 C282.321908,22.0146755 285.029401,24.0614106 287.285708,26.9300183 C289.187364,29.3152513 290.605559,31.9582803 291.54035,34.8591629 C292.475027,37.7278572 292.942452,40.8866223 292.942452,44.3354296 C292.942452,52.7158181 290.702268,59.2750791 286.222046,64.0131835 C281.741709,68.7190997 275.504794,71.0720576 267.511244,71.0720576 L240.968006,71.0720576 L240.968006,0 L254.747286,0 Z M375.908197,0 L375.908197,71.0720576 L361.548748,71.0720576 L361.548748,0 L375.908197,0 Z M405.980858,0 L405.980858,18.9042218 L420.533698,18.9042218 L420.533698,29.2990994 L405.980858,29.2990994 L405.980858,50.3789543 C405.980829,54.246846 406.641586,56.9382441 407.963129,58.4531489 C409.284644,59.9358363 411.589233,60.6771801 414.876954,60.6771512 L420.533698,60.6771512 L420.533698,71.0720576 L407.963129,71.0720576 C402.870432,71.0720576 398.970324,69.6699567 396.262831,66.8657547 C393.555339,64.0293066 392.201579,59.9841767 392.201579,54.7303072 L392.201579,29.2990994 L382.483581,29.2990994 L382.483581,18.9042218 L392.201579,18.9042218 L392.201579,0 L405.980858,0 Z M325.577584,29.2990994 C321.451838,29.2990994 318.212515,30.685135 315.859586,33.457062 C313.538846,36.2290467 312.378503,40.0808151 312.378503,45.0123099 C312.378503,49.9760796 313.538846,53.8439424 315.859586,56.6158982 C318.18027,59.3878828 321.419621,60.7738608 325.577584,60.7738608 C329.703271,60.7738608 332.942623,59.3878828 335.295609,56.6158982 C337.64851,53.8439424 338.825032,49.9760796 338.825032,45.0123099 C338.825032,40.048569 337.64851,36.1968293 335.295609,33.457062 C332.97484,30.685135 329.735517,29.2990994 325.577584,29.2990994 Z M97.0834074,49.7987836 L80.8383952,49.7987836 C77.6151378,49.7987836 75.3911067,50.2339333 74.1663305,51.1042039 C72.9414679,51.9744744 72.3290799,53.4893792 72.3290799,55.6489469 C72.3290799,57.4861976 72.812541,58.775466 73.7795212,59.5168097 C74.7787186,60.2259073 76.7932076,60.5804705 79.8230747,60.5804705 L97.0834074,60.5804705 L97.0834074,49.7987836 Z M23.2555169,30.16937 L13.7792503,30.16937 L13.7792503,59.9035902 L22.1918561,59.9035902 C27.7680139,59.9035902 31.7164632,58.7271256 34.0372039,56.3741676 C36.3578869,54.0212096 37.5182862,50.1050065 37.5182862,44.6255294 C37.5182862,39.3394714 36.4545676,35.6166585 34.3273037,33.457062 C32.1999244,31.2653058 28.5093577,30.16937 23.2555169,30.16937 Z M263.159891,30.16937 L254.747286,30.16937 L254.747286,59.9035902 L264.223552,59.9035902 C269.477363,59.9035902 273.167959,58.8077121 275.295338,56.6158982 C277.422602,54.3918958 278.486321,50.6368368 278.486321,45.3507501 C278.486321,39.9035192 277.309798,36.0195622 274.956898,33.6987925 C272.636129,31.3458922 268.703803,30.16937 263.159891,30.16937 Z" fill="#000000"></path>
    </g>
</svg>

<svg xmlns="http://www.w3.org/2000/svg" viewBox="0 0 512 89.976">
  <path fill="#d40000" d="m476.27 5.665.118.002.328.015a7.745 7.745 0 0 1 4.478 1.819l.25.221.239.23 28.176 28.305c2.823 2.835 2.848 7.264.113 10.18l-.19.196-.196.188-29.213 27.076c-2.955 2.74-7.508 2.823-10.492.233l-.206-.185-.197-.192-16.323-16.387a.5.5 0 0 1 .075-.767c3.446-2.314 5.953-5.768 7.04-9.733l.103-.398.098-.418a.5.5 0 0 1 .401-.378l.086-.008h12.177a.5.5 0 0 1 .491.41l.008.09v4.728a2.798 2.798 0 0 0 2.462 2.785l.169.014.173.005h5.992a2.798 2.798 0 0 0 2.785-2.462l.014-.168.005-.174v-4.728a.5.5 0 0 1 .41-.492l.09-.008h2.137a2.818 2.818 0 0 0 2.818-2.494l.014-.171.005-.171v-3.11c0-1.468-1.088-2.685-2.496-2.849l-.17-.014-.17-.005H460.31a.5.5 0 0 1-.468-.327c-1.438-3.902-4.288-7.168-7.98-9.186l-.373-.198-.374-.188a.5.5 0 0 1-.177-.744l.062-.068 19.788-18.331a7.937 7.937 0 0 1 4.77-2.107l.334-.024.26-.011zm-33.059 28.29c4.785 0 8.668 3.805 8.668 8.506 0 4.7-3.883 8.506-8.668 8.506-4.785 0-8.668-3.806-8.668-8.506s3.883-8.507 8.668-8.507z"/>
  <path d="M26.543 18.904c7.994 0 14.23 2.353 18.711 7.06 4.48 4.705 6.72 11.264 6.72 19.677 0 3.449-.467 6.624-1.402 9.524a24.947 24.947 0 0 1-4.254 7.881c-2.257 2.869-4.964 4.932-8.123 6.189-3.159 1.225-7.349 1.837-12.57 1.837H13.779v18.904H0V18.904zm299.131-.918c8.38 0 15.069 2.465 20.065 7.397 5.028 4.9 7.542 11.442 7.542 19.63 0 8.186-2.498 14.73-7.494 19.629-4.964 4.867-11.668 7.3-20.113 7.3s-15.181-2.45-20.21-7.349c-5.028-4.899-7.542-11.426-7.542-19.58 0-8.188 2.514-14.73 7.543-19.63 5.028-4.932 11.764-7.397 20.21-7.397zm-235.94.918c7.124 0 12.49 1.644 16.1 4.932 3.61 3.255 5.415 8.106 5.415 14.553v32.683H74.215c-5.19 0-9.187-1.305-11.99-3.916-2.773-2.611-4.159-6.318-4.159-11.12 0-5.931 1.596-10.186 4.787-12.764 3.223-2.579 8.557-3.868 16.003-3.868h18.13v-1.306c0-3.094-.918-5.27-2.755-6.527-1.805-1.257-5.045-1.885-9.718-1.885H61.499V18.904zm79.872 0v10.879h-24.32c-3.964 0-6.542.354-7.735 1.063-1.193.677-1.789 1.902-1.789 3.675 0 1.611.516 2.804 1.547 3.577 1.064.742 2.724 1.113 4.98 1.113h12.474c5.705 0 10.056 1.337 13.054 4.012 2.998 2.643 4.496 6.48 4.496 11.507 0 4.835-1.337 8.767-4.013 11.797-2.643 3.03-6.06 4.545-10.25 4.545h-35.584V60.194h29.058c2.578 0 4.448-.403 5.608-1.209 1.193-.806 1.789-2.095 1.789-3.868 0-1.773-.596-3.062-1.789-3.868-1.193-.838-3.062-1.257-5.608-1.257H139.63c-7.059 0-11.83-1.08-14.311-3.24-2.482-2.159-3.723-5.994-3.723-11.506 0-5.608 1.499-9.734 4.496-12.377 2.998-2.643 7.64-3.965 13.925-3.965zm58.791 0v10.879h-24.319c-3.964 0-6.543.354-7.735 1.063-1.193.677-1.79 1.902-1.79 3.675 0 1.611.516 2.804 1.548 3.577 1.063.742 2.723 1.113 4.98 1.113h12.474c5.705 0 10.056 1.337 13.054 4.012 2.997 2.643 4.496 6.48 4.496 11.507 0 4.835-1.338 8.767-4.013 11.797-2.643 3.03-6.06 4.545-10.25 4.545h-35.584V60.194h29.057c2.579 0 4.448-.403 5.609-1.209 1.192-.806 1.788-2.095 1.788-3.868 0-1.773-.596-3.062-1.788-3.868-1.193-.838-3.063-1.257-5.609-1.257h-11.893c-7.06 0-11.83-1.08-14.312-3.24-2.481-2.159-3.722-5.994-3.722-11.506 0-5.608 1.498-9.734 4.496-12.377 2.998-2.643 7.639-3.965 13.924-3.965zM254.747 0v18.904h11.846c5.221 0 9.411.629 12.57 1.886 3.159 1.225 5.866 3.271 8.123 6.14a24.838 24.838 0 0 1 4.254 7.93c.935 2.868 1.402 6.027 1.402 9.475 0 8.38-2.24 14.94-6.72 19.678-4.48 4.706-10.717 7.06-18.71 7.06h-26.544V0zm121.161 0v71.072h-14.36V0zm30.073 0v18.904h14.553V29.3H405.98v21.08c0 3.868.66 6.56 1.982 8.074 1.322 1.483 3.626 2.224 6.914 2.224h5.657v10.395h-12.57c-5.094 0-8.994-1.402-11.701-4.206-2.708-2.837-4.061-6.882-4.061-12.136V29.3h-9.718V18.903h9.718V0zm-80.403 29.3c-4.126 0-7.365 1.385-9.718 4.157-2.321 2.772-3.481 6.624-3.481 11.555 0 4.964 1.16 8.832 3.48 11.604 2.321 2.772 5.56 4.158 9.719 4.158 4.125 0 7.365-1.386 9.718-4.158 2.353-2.772 3.529-6.64 3.529-11.604 0-4.963-1.176-8.815-3.53-11.555-2.32-2.772-5.56-4.158-9.717-4.158zM97.083 49.798H80.838c-3.223 0-5.447.435-6.672 1.305-1.225.87-1.837 2.385-1.837 4.545 0 1.837.484 3.126 1.45 3.868 1 .709 3.014 1.063 6.044 1.063h17.26zm-73.827-19.63h-9.477v29.735h8.413c5.576 0 9.524-1.177 11.845-3.53 2.32-2.353 3.481-6.269 3.481-11.748 0-5.287-1.063-9.01-3.19-11.169-2.128-2.192-5.819-3.288-11.072-3.288zm239.904 0h-8.413v29.735h9.477c5.253 0 8.944-1.096 11.071-3.288 2.128-2.224 3.191-5.98 3.191-11.265 0-5.447-1.176-9.331-3.53-11.652-2.32-2.353-6.252-3.53-11.796-3.53z"/>
</svg>
